svgs/sharp-light/cards-blank.svg

<svg xmlns="http://www.w3.org/2000/svg" viewBox="0 0 640 512"><!--! Font Awesome Pro 6.6.0 by @fontawesome - https://fontawesome.com License - https://fontawesome.com/license (Commercial License) Copyright 2024 Fonticons, Inc. --><path d="M421.2 353.6L222.6 468.3 43.7 158.4 242.3 43.7 421.2 353.6zM226.3 16L0 146.7 194.9 484.3l16 27.7 27.7-16L437.2 381.4l27.7-16-16-27.7L270 27.7 254 0 226.3 16zM320 512l32 0 256 0 32 0 0-32 0-384 0-32-32 0L336.1 64l-8.2 0 18.5 32L608 96l0 384-256 0 0-12.5L320 486l0 26z"/></svg>

<svg xmlns="http://www.w3.org/2000/svg" viewBox="0 0 640 512"><!--! Font Awesome Pro 6.4.2 by @fontawesome - https://fontawesome.com License - https://fontawesome.com/license (Commercial License) Copyright 2023 Fonticons, Inc. --><path d="M421.2 353.6L222.6 468.3 43.7 158.4 242.3 43.7 421.2 353.6zM226.3 16L0 146.7 194.9 484.3l16 27.7 27.7-16L437.2 381.4l27.7-16-16-27.7L270 27.7 254 0 226.3 16zM320 512h32H608h32V480 96 64H608 336.1h-8.2l18.5 32H608V480H352V467.5L320 486v26z"/></svg>
